!!!!SEGMENT: pl-kk--kk-i-133--003_anonim--deo-gratias.krn
!!!cenid: 16xx:788
!!!COM: Anonim
!!!COM-rism: pe30004985
!!!CDT:
!!!CNT:
!!!OTL: Deo gratias
!!!PDT:
!!!AGN: Sacred
!!!SMS-siglum: PL-Kk
!!!SMS-shelfmark: Kk.I.133
!!!NIFC-rismID: 1001144205
!!!URL-scan: http://repozytorium.nifc.pl/skany/pl-kk-nut--i-133
!!!ONB-nifc: UWAGA: źródło to partytura (S,A,T,B) 3 utworów: 1. Benedicam Domino, 2. Deo gratias, 3. Deo gratias (z tytułem pod głosem B „De Confessore”)
!!!SMS-variant:
!!!SMS-altvar:
**kern	**fba	**text	**kern	**text	**kern	**text	**kern	**text
*part4	*part4	*part4	*part3	*part3	*part2	*part2	*part1	*part1
*staff4	*	*staff4	*staff3	*staff3	*staff2	*staff2	*staff1	*staff1
*I"Basso	*	*	*I"Tenore	*	*I"Alto	*	*I"Canto	*
*clefF4	*	*	*clefC4	*	*clefC3	*	*clefC1	*
*k[b-]	*	*	*k[b-]	*	*k[b-]	*	*k[b-]	*
*M2/2	*	*	*M2/2	*	*M2/2	*	*M2/2	*
*met(c|)	*	*	*met(c|)	*	*met(c|)	*	*met(c|)	*
=1	=1	=1	=1	=1	=1	=1	=1	=1
*2\right	*	*	*	*	*	*	*	*
*^	*	*	*	*	*	*	*	*
!LO:TX:b:t=De Confesore.	!	!	!	!	!	!	!	!	!
2D\	2D/	.	.	1F/	.	1r	.	[1f/	.
2r	2ryy	.	.	.	.	.	.	.	.
*v	*v	*	*	*	*	*	*	*	*
=2	=2	=2	=2	=2	=2	=2	=2	=2
1C/	4 3	.	1G/	.	1r	.	2f/]	.
.	.	.	.	.	.	.	2e/	.
=3	=3	=3	=3	=3	=3	=3	=3	=3
2D\	6	.	1B-X\	.	1r	.	2f/	.
2E\	5	.	.	.	.	.	2g/	.
=4	=4	=4	=4	=4	=4	=4	=4	=4
*	*	*	*	*	*	*	*2\right	*
2F\	.	.	1F/	.	1c\	De-	2a\	.
2AA/	5	.	.	.	.	.	2cc\	.
=5	=5	=5	=5	=5	=5	=5	=5	=5
*	*	*	*	*	*2\right	*	*	*
2BB-/	6	.	1G/	.	2d\	-o.	2b-\	.
2C/	5	.	.	.	2e\	.	2g\	.
=6	=6	=6	=6	=6	=6	=6	=6	=6
2F\	.	.	1F/	.	2f\	.	2a\	.
2B-\	.	.	.	.	2d\	.	2b-\	.
=7	=7	=7	=7	=7	=7	=7	=7	=7
2G\	6	.	1E-X/	.	2g\	.	2b-\	.
.	-	.	.	.	.	.	.	.
!	!	!	!	!	!LO:TX:a:t=P:problem: ♭ above	!	!	!
2A\	5	.	.	.	2e-X\	.	[2a\	.
=8	=8	=8	=8	=8	=8	=8	=8	=8
2F\	6	.	1D/	.	2f\	.	2a\]	.
2G\	.	.	.	.	2d\	.	2g\	.
=9	=9	=9	=9	=9	=9	=9	=9	=9
2C/	.	.	1C/	.	1en\	.	2.g\	.
2c\	.	.	.	.	.	.	.	.
.	.	.	.	.	.	.	4g\	.
=10	=10	=10	=10	=10	=10	=10	=10	=10
!LO:TX:b:t=a	!	!	!	!	!LO:TX:a:t=1.	!	!	!
2A\	6	.	1F/	.	1r	.	1a\	.
!LO:TX:b:t=f.	!	!	!	!	!	!	!	!
2F\	6	.	.	.	.	.	.	.
!	!	!	!	!	!	!	!LO:LB:g=original	!
=11	=11	=11	=11	=11	=11	=11	=11	=11
!LO:TX:b:t=e.	!	!	!	!	!	!	!	!
2E\	6	.	1G/	.	(<1c\	.	1r	.
2r	6	.	.	.	.	.	.	.
!LO:LB:g=original	!	!	!LO:LB:g=original	!	!LO:LB:g=original	!	!	!
=12	=12	=12	=12	=12	=12	=12	=12	=12
!LO:TX:b:t=3.	!	!	!	!	!	!	!	!
0r	.	.	1F/	De-	2g\)	.	1ryy	.
.	.	.	.	.	2r	.	.	.
=13	=13	=13	=13	=13	=13	=13	=13	=13
!	!	!	!	!	!	!	!LO:TX:a:t=2	!
.	.	.	1G/	.	[<1c\	De-	1r	.
=14	=14	=14	=14	=14	=14	=14	=14	=14
!	!	!	!	!	!LO:SIC:o:t:v=wykreślony dźwiek f	!	!	!
1r	.	.	1A\	.	2c\]	.	1f/	De
.	.	.	.	.	2d\	.	.	.
=15	=15	=15	=15	=15	=15	=15	=15	=15
!	!	!	!	!	!LO:TX:a:t=P:problem:♮ above	!	!	!
[1C/	.	De-	1G/	.	1en\	.	1g\	.
=16	=16	=16	=16	=16	=16	=16	=16	=16
2C/]	6	.	1A\	.	2f\	-o	2f\	.
[<2D\	5	.	.	.	2c\	.	2a\	.
=17	=17	=17	=17	=17	=17	=17	=17	=17
2D\]	6	.	1B-\	.	2d\	de-	1g\	.
2E\	5	.	.	.	2e\	.	.	.
=18	=18	=18	=18	=18	=18	=18	=18	=18
2F\	6	.	1A\	.	2c\	.	2a\	.
2A\	.	.	.	.	[<2f\	.	[2cc\	.
=19	=19	=19	=19	=19	=19	=19	=19	=19
2c\	4	.	1G/	.	2f\]	.	1cc\]	.
2C/	3	.	.	.	2e\	.	.	.
=20	=20	=20	=20	=20	=20	=20	=20	=20
!	!	!	!	!	!	!	!LO:TX:b:t=c.	!
2F,<\	.	-o	1F/,<	-o	1f\	-o	1cc\	.
2E\	.	.	.	.	.	.	.	.
=21	=21	=21	=21	=21	=21	=21	=21	=21
2D\	.	gr(a)-	1A\	gra-	1f\	gra-	2r	.
2F\	.	.	.	.	.	.	2a/	.
=22	=22	=22	=22	=22	=22	=22	=22	=22
2G\	6	.	1G/	.	2d\	.	1b-\	.
.	7	.	.	.	.	.	.	.
2C/	7	.	.	.	2e\	.	.	.
=23	=23	=23	=23	=23	=23	=23	=23	=23
2A\	6	.	1F/	.	2c\	.	2cc/	.
2B-X\	-5	.	.	.	2d\	.	4b-/	.
.	.	.	.	.	.	.	4a/	.
=24	=24	=24	=24	=24	=24	=24	=24	=24
2c\	.	.	1E/	.	2e\	.	2.g/	.
2C/	.	-ti-	.	.	2g\	-ti-	.	.
.	.	.	.	.	.	.	4g/	.
=25	=25	=25	=25	=25	=25	=25	=25	=25
1F\	.	-as	1F/	.	1f\,	-as	1a\,<	.
=26	=26	=26	=26	=26	=26	=26	=26	=26
!	!	!	!	!	!	!	!LO:TX:a:t=b	!
2B-X\	.	De-	1D/	.	2f\	De-	1b-\	.
2G\	.	.	.	.	2g\	.	.	.
=27	=27	=27	=27	=27	=27	=27	=27	=27
2A\	6	.	1F/	.	2c\	.	1cc\	.
2F\	.	.	.	.	2f\	.	.	.
=28	=28	=28	=28	=28	=28	=28	=28	=28
2c\	.	-o	1E/	.	1g\	-o	1cc\,<	.
2C/	.	.	.	.	.	.	.	.
=29	=29	=29	=29	=29	=29	=29	=29	=29
2BB-/	6	gra-	1G/	.	2g\	De-	2dd\	.
2E\ 2C\	.	.	.	.	2e\	.	[<2cc\	.
=30	=30	=30	=30	=30	=30	=30	=30	=30
2F\	.	.	1A\	.	1f\	-o	2cc\]	.
2AA/	6	.	.	.	.	.	2cc\	.
=31	=31	=31	=31	=31	=31	=31	=31	=31
1BB-/	6	.	[1G/	.	[<1f\	.	1dd\	.
=32	=32	=32	=32	=32	=32	=32	=32	=32
!	!	!	!	!	!LO:N:xstem:cue:vis=4	!	!	!
2.C\	4	-ti-	2G/]	.	2f\]	.	2.cc\	.
.	3	.	2G/	ti-	2e\	.	.	.
4C\	.	-as	.	.	.	.	4cc\	.
=33	=33	=33	=33	=33	=33	=33	=33	=33
0FF/	.	.	0F/	-as.	0f\	.	0cc\	.
=-	=-	=-	=-	=-	=-	=-	=-	=-
=	=	=	=	=	=	=	=	=
*	*	*	*clefF4	*	*	*	*	*
=34	=34	=34	=34	=34	=34	=34	=34	=34
1ryy	.	.	1A\	.	2c-X\	.	1f/	.
.	.	.	.	.	2d\	.	.	.
=35	=35	=35	=35	=35	=35	=35	=35	=35
[<1C/	.	.	1c\	.	1en\	.	2g\	.
.	.	.	.	.	.	.	2a\	.
=36	=36	=36	=36	=36	=36	=36	=36	=36
!LO:TX:b:t=c.	!	!	!	!	!	!	!	!
2C\]	6	.	1A\	.	2e\	.	2f/	.
!LO:TX:b:t=d.	!	!	!	!	!	!	!	!
2D\	6	.	.	.	[<2f\	.	2cc\	.
=37	=37	=37	=37	=37	=37	=37	=37	=37
2D\	6	.	1B-X\	.	2f\]	.	2b-\	.
2E-X\	5	.	.	.	[<2e-X\	.	(<[2g\	.
=38	=38	=38	=38	=38	=38	=38	=38	=38
2D\	6	.	1A\	.	2e-\]	.	2g/]	.
2E-X\	5	.	.	.	[<2d\	.	[2f/)	.
=39	=39	=39	=39	=39	=39	=39	=39	=39
2BB-/	6 5	.	1G\	.	2d\]	.	2f/]	.
2C/	.	.	.	.	2c\	.	2e/	.
=40	=40	=40	=40	=40	=40	=40	=40	=40
2F\	.	.	1F\	.	2c\	.	2f/	.
2AA/	6	.	.	.	2f\	.	2cc\	.
=41	=41	=41	=41	=41	=41	=41	=41	=41
2BB-/	6	.	1E\	.	[<1f\	.	2dd\	.
2D\	.	.	.	.	.	.	2cc\	.
=42	=42	=42	=42	=42	=42	=42	=42	=42
2c\	.	.	2.G/	.	2f\]	.	2.g\	.
2C/	.	.	.	.	2e\	.	.	.
.	.	.	4G/	.	.	.	4g\	.
=43	=43	=43	=43	=43	=43	=43	=43	=43
1A\	.	.	1F\	.	1f\	.	1a\	.
==	==	==	==	==	==	==	==	==
*-	*-	*-	*-	*-	*-	*-	*-	*-
!!!system-decoration: [(s1,s2,s3,s4)]
!!!RDF**kern: > = above
!!!RDF**kern: < = below
!!!EED: Leszek Kubiak
!!!EST: 2021-03-01
!!!ENC: Tomasz Grochalski
!!!END: 2021-02-16
